X:257
T:McKenzie Highlanders
B:Master Method for Highland Bagpipe (1953)
Z:Nigel Gatherer
M:2/4
L:1/8
K:A mixolydian
e/d/|cB/c/ A/>B/c/>d/|eA Ae/d/|cB/c/ A/>B/c/>d/|e2 ea|
cB/c/ A/>B/c/>d/|eA Ag|BA/G/ gB/G/|d2 d:|
g|ac/A/ ef/d/|eA Ag|ac/A/ ef/d/|e2 eg|
ac/A/ ef/d/|eA Ag|BA/G/ gB/G/|d2 dg|
ac/A/ ef/d/|eA Ag|ac/A/ ef/d/|e2 eg|
ag/f/ gf/e/|fe/d/ eg|BA/G/ gB/G/|d2 d|]
<end>
<start>
